X:29
M:4/4
L:1/4
K:F
G | B c d3/2 B/ | A G ^F A | B3/2 c/ d B | B A B2 | B3/2 B/ A c | B B A A | d3/2 B/ A G | G ^F G2 | B3/2 B/ A c | B B A !sintro!A | d B A G | G ^F G2 !eintro!|]
